assets/features/global-acquiring/phone.svg

<svg width="24" height="24" viewBox="0 0 24 24" fill="none" xmlns="http://www.w3.org/2000/svg">
<path d="M8 2.5C7.31 2.5 6.75 3.06 6.75 3.75V20.25C6.75 20.94 7.31 21.5 8 21.5H16C16.69 21.5 17.25 20.94 17.25 20.25V3.75C17.25 3.06 16.69 2.5 16 2.5H8Z" fill="white"/>
<path d="M8 2.5C7.31 2.5 6.75 3.06 6.75 3.75V20.25C6.75 20.94 7.31 21.5 8 21.5H16C16.69 21.5 17.25 20.94 17.25 20.25V3.75C17.25 3.06 16.69 2.5 16 2.5H8ZM8 1H16C16.7293 1 17.4288 1.28973 17.9445 1.80546C18.4603 2.32118 18.75 3.02065 18.75 3.75V20.25C18.75 20.9793 18.4603 21.6788 17.9445 22.1945C17.4288 22.7103 16.7293 23 16 23H8C7.27065 23 6.57118 22.7103 6.05546 22.1945C5.53973 21.6788 5.25 20.9793 5.25 20.25V3.75C5.25 3.02065 5.53973 2.32118 6.05546 1.80546C6.57118 1.28973 7.27065 1 8 1ZM9.5 1.75H14.5C14.5657 1.75 14.6307 1.76293 14.6913 1.78806C14.752 1.81319 14.8071 1.85002 14.8536 1.89645C14.9 1.94288 14.9368 1.998 14.9619 2.05866C14.9871 2.11932 15 2.18434 15 2.25V3.25C15 3.31566 14.9871 3.38068 14.9619 3.44134C14.9368 3.502 14.9 3.55712 14.8536 3.60355C14.8071 3.64998 14.752 3.68681 14.6913 3.71194C14.6307 3.73707 14.5657 3.75 14.5 3.75H9.5C9.43434 3.75 9.36932 3.73707 9.30866 3.71194C9.248 3.68681 9.19288 3.64998 9.14645 3.60355C9.10002 3.55712 9.06319 3.502 9.03806 3.44134C9.01293 3.38068 9 3.31566 9 3.25V2.25C9 2.11739 9.05268 1.99021 9.14645 1.89645C9.24021 1.80268 9.36739 1.75 9.5 1.75Z" fill="black"/>
</svg>

<svg xmlns="http://www.w3.org/2000/svg" width="24" height="24" fill="none" viewBox="0 0 24 24"><path fill="#fff" d="M8 2.5c-.69 0-1.25.56-1.25 1.25v16.5c0 .69.56 1.25 1.25 1.25h8c.69 0 1.25-.56 1.25-1.25V3.75c0-.69-.56-1.25-1.25-1.25z"/><path fill="#000" d="M8 2.5c-.69 0-1.25.56-1.25 1.25v16.5c0 .69.56 1.25 1.25 1.25h8c.69 0 1.25-.56 1.25-1.25V3.75c0-.69-.56-1.25-1.25-1.25zM8 1h8a2.75 2.75 0 0 1 2.75 2.75v16.5A2.75 2.75 0 0 1 16 23H8a2.75 2.75 0 0 1-2.75-2.75V3.75A2.75 2.75 0 0 1 8 1m1.5.75h5a.5.5 0 0 1 .5.5v1a.5.5 0 0 1-.5.5h-5a.5.5 0 0 1-.5-.5v-1a.5.5 0 0 1 .5-.5"/></svg>
